X:1
T:Mrs. Gladys MacDonald
M:6/8
L:1/8
Q:80
C:Roderick MacDonald
S:March
K:HP
|: f | \
{g}B2{GdGe}B{g}B2{d}c | \
{Gdc}d3/2e/2f{g}f3/2e/2d | \
{g}c/2e3/2c{g}A2{GdGe}A |
a3/2g/2{a}f{g}f3/2e/2c | \
{g}B2{GdGe}B{g}B2{d}c | \
{Gdc}d3/2e/2f{g}f/2a3/2f |
{gef}e3/2{g}c/2{d}Aa3/2e/2{g}c | \
{g}B3{GdGe}B2:|2
B3|:
{Gdc}d3/2e/2f{gfg}f3/2e/2d | \
{g}f/2a3/2f{g}f3/2e/2d | \
{g}c/2e3/2c{g}A2{GdGe}A |
a3/2g/2{a}f{g}f3/2e/2c|1
{Gdc}d3/2e/2f{gfg}f3/2e/2d | \
{g}f/2a3/2f{g}f3/2e/2d |
{gef}e3/2{g}c/2{d}Aa3/2e/2{g}c | \
{g}B3{GdGe}|1 B3:|2
B2|:
f | \
{g}B2{GdGe}B{g}B3/2{d}c/2{e}B | \
{g}B/2{d}c3/2{e}B{g}f3/2{g}e/2a | \
A3/2{d}c/2{e}B{g}A2{GdGe}A |
{g}c/2e3/2a{g}a3/2e/2{g}c | \
{g}B2{GdGe}B{g}B3/2{d}c/2{e}B | \
{g}B/2{d}c3/2{e}B{g}f3/2{g}d/2{G}d |
{gef}e3/2{g}c/2{d}Aa3/2e/2{g}c | \
{g}B3{GdGe}|1 B2:|2
B3|:
{g}f3{gfg}f2e | \
{g}f/2a3/2f{g}f3/2e/2d | \
{g}c/2e3/2{A}e{gef}e3/2{g}c/2{d}A |
a3/2g/2{a}f{g}f3/2e/2c|1
{g}f3{gfg}f2e | \
{g}f/2a3/2f{g}f3/2e/2d |
{gef}e3/2{g}c/2{d}Aa3/2e/2{g}c | \
{g}B3{GdGe}B3:|2
{g}B2{GdGe}B{g}B3/2{d}c/2{e}B |
{g}B/2{d}c3/2{e}B{g}c/2{d}B3/2{d}c | \
{gef}e3/2{g}c/2{d}Aa3/2e/2{g}c | \
{g}B3{GdGe}B3 :|
